svgs/loop.svg

<svg width="192" height="192" viewBox="0 0 192 192" fill="none" xmlns="http://www.w3.org/2000/svg">
<path fill-rule="evenodd" clip-rule="evenodd" d="M126.645 38.17C131.755 31.8526 141.449 30.4835 148.071 36.3024C159.231 46.1089 167.429 58.8619 171.692 73.1281C176.292 88.5224 176.09 104.947 171.114 120.224C166.139 135.501 156.625 148.905 143.842 158.665C131.059 168.425 115.608 174.084 99.534 174.898C83.4602 175.712 67.5142 171.644 53.8062 163.227C40.0976 154.81 29.2709 142.438 22.7666 127.745C16.262 113.051 14.3893 96.7319 17.3987 80.9509C19.548 69.6801 24.1144 59.0669 30.7216 49.8092L27.6065 46.7056C16.1787 35.3203 24.3658 16 40.3186 16H79.8333C89.7322 16 97.8333 24.0068 97.8333 33.9777V73.3456C97.8333 89.4448 78.4006 97.311 67.1212 86.0735L64.4 83.3624C63.6007 85.3485 62.9919 87.4158 62.5872 89.5377C61.324 96.1618 62.1094 103.013 64.8419 109.185C67.5745 115.359 72.128 120.567 77.9068 124.115C83.6861 127.664 90.4154 129.382 97.2031 129.039C103.991 128.695 110.509 126.305 115.895 122.193C121.28 118.081 125.279 112.442 127.368 106.026C129.458 99.611 129.542 92.7164 127.611 86.2527C125.89 80.4916 122.637 75.3102 118.211 71.2487C112.702 66.1939 111.263 57.1845 116.604 50.5815L126.645 38.17ZM55.3773 74.3733C53.2157 78.4002 51.6649 82.7523 50.7996 87.2898C49.0793 96.3114 50.1496 105.641 53.8689 114.043C57.5882 122.445 63.7811 129.523 71.6278 134.341C79.4745 139.159 88.6048 141.489 97.8101 141.023C107.015 140.557 115.861 137.316 123.177 131.731C130.493 126.145 135.934 118.477 138.778 109.742C141.623 101.008 141.739 91.6184 139.109 82.8172C136.765 74.9732 132.339 67.926 126.324 62.4066C125.105 61.2884 124.894 59.4138 125.934 58.1285L135.974 45.7171C137.014 44.4318 138.908 44.2248 140.15 45.3166C149.624 53.6414 156.579 64.4633 160.194 76.5636C164.096 89.6203 163.925 103.55 159.704 116.508C155.484 129.465 147.413 140.841 136.56 149.127C125.707 157.414 112.583 162.222 98.927 162.913C85.2708 163.605 71.7258 160.148 60.0852 153.001C48.4445 145.853 39.2572 135.352 33.7396 122.887C28.2219 110.423 26.634 96.5824 29.1863 83.1988C31.6423 70.3197 37.8206 58.448 46.946 49.0342L36.0759 38.2046C32.2961 34.4388 34.9731 28 40.3186 28H79.8333C83.147 28 85.8333 30.6763 85.8333 33.9777V73.3456C85.8333 78.6711 79.3704 81.3382 75.5906 77.5724L62.5058 64.5363C59.6851 67.4956 57.2917 70.807 55.3773 74.3733Z" fill="black"/>
</svg>

<svg width="192" height="192" fill="none" xmlns="http://www.w3.org/2000/svg"><path fill-rule="evenodd" clip-rule="evenodd" d="M126.645 38.17c5.11-6.317 14.804-7.687 21.426-1.868a79.223 79.223 0 0 1 23.621 36.826 79.01 79.01 0 0 1-.578 47.096 79.246 79.246 0 0 1-27.272 38.441 79.654 79.654 0 0 1-44.308 16.233 79.695 79.695 0 0 1-45.728-11.671 79.326 79.326 0 0 1-31.04-35.482A79.02 79.02 0 0 1 17.4 80.951a79.118 79.118 0 0 1 13.323-31.142l-3.116-3.103C16.18 35.32 24.367 16 40.32 16h39.514c9.9 0 18 8.007 18 17.978v39.368c0 16.099-19.432 23.965-30.712 12.727l-2.721-2.71a33.174 33.174 0 0 0 .442 25.823 33.377 33.377 0 0 0 13.065 14.929 33.635 33.635 0 0 0 37.988-1.922 33.33 33.33 0 0 0 11.473-16.167 33.168 33.168 0 0 0 .243-19.773 33.308 33.308 0 0 0-9.4-15.004c-5.509-5.055-6.948-14.064-1.607-20.667l10.041-12.412ZM55.377 74.373a45.178 45.178 0 0 0-1.508 39.67 45.381 45.381 0 0 0 17.759 20.298 45.633 45.633 0 0 0 26.182 6.682 45.608 45.608 0 0 0 25.367-9.292 45.327 45.327 0 0 0 15.601-21.989 45.167 45.167 0 0 0 .331-26.925 45.313 45.313 0 0 0-12.785-20.41c-1.219-1.119-1.43-2.993-.39-4.278l10.04-12.412c1.04-1.285 2.934-1.492 4.176-.4a67.214 67.214 0 0 1 20.044 31.247 67.003 67.003 0 0 1-.49 39.944 67.248 67.248 0 0 1-23.144 32.619 67.648 67.648 0 0 1-37.633 13.786 67.696 67.696 0 0 1-38.842-9.912 67.327 67.327 0 0 1-26.345-30.114 67.018 67.018 0 0 1-4.554-39.688 67.164 67.164 0 0 1 17.76-34.165l-10.87-10.83C32.296 34.44 34.973 28 40.319 28h39.514c3.314 0 6 2.676 6 5.978v39.368c0 5.325-6.463 7.992-10.242 4.226L62.506 64.536a45.334 45.334 0 0 0-7.129 9.837Z" fill="#000"/></svg>
